X:1
T:Frühlingsgruß
T:  Für gemischten Chor von G. Noack
T:Hoffmann von Fallersleben
T:Frühlingsgruß
T:Robert Schumann, 1845, Op. 79,4
T:CPDL - Creative Commons Attribution Non Commercial 3.0
C:Robert Schumann
Z:Hoffmann von Fallersleben
Z:CPDL - Creative Commons Attribution Non Commercial 3.0
%%score [ ( 1 2 ) ( 3 4 ) ]
L:1/8
Q:1/4=80
M:3/4
K:F
V:1 treble nm="Sopran\nAlt"
V:2 treble 
V:3 bass nm="Tenor\nBass"
V:4 bass 
V:1
!mf!"^Mäßig" C2 | F>!<(!A G2!<)! F2 |!>(! d>B G4!>)! |!mf! c3 A GF |!>(! A2 G2!>)! z!mf! C | %5
w: 1.~So|sei ge- grüßt viel|tau- send- mal,|hol- der, hol- der|Früh- ling! Will-|
w: 2.~Du|kommst, und froh ist|al- le Welt,||* * Es|
w: 3.~So|sei ge- grüßt viel|tau- send- mal,||* * O|
 F>!<(!A G2 F2!<)! |!>(! f>d =B4!>)! | c3 G GF |!>(! F2 E2!>)! z2 |!mf! (3CEG B2"^cresc." d2 | %10
w: kom- men hier in|un- serm Tal,|hol- der, hol- der|Früh- ling!|Hol- * der Früh- ling,|
w: freut sich Wie- se,|Wald und Feld,|||Ju- * bel tönt dir|
w: bleib recht lang' in|un- serm Tal,|||Kehr' _ in al- le|
 (3CEG !^!B4 | A>A B!<(!c de!<)! |!f! f>!>(!d!>)! c3 C |!>(! B>G!>)! !fermata!F4 |] %14
w: ü- * ber- all|grü- ßen wir dich froh mit|Sang und Schall, mit|Sang und Schall.|
w: ü- * ber- all,|dich be- grü- ßet Lerch' und|Nach- ti- gall, und|Nach- ti- gall.|
w: Her- * zen ein,|lass doch al- le mit uns|fröh- lich sein, recht|fröh- lich sein.|
V:2
 C2 | C>F F2 F2 | F>F E4 | F3 F DD | F2 E2 x C | C>F F2 F2 | F>F F4 | E3 E ED | D2 C2 x2 | %9
 x2 G2 B2 | x2 E4 | F>F FF FF | F>F F3 C | E>E F4 |] %14
V:3
!mf! C,2 | A,>!<(!C B,2!<)! A,2 |!>(! B,>D C4!>)! |!mf! C3 C G,G, |!>(! C2 C2!>)! z!mf! C | %5
 A,>!<(!C B,2 A,2!<)! |!>(! =B,>B, D4!>)! | C3 C =B,B, |!>(! C2 G,2!>)! z2 | %9
!mf! (3C,E,G, B,2"^cresc." D2 | (3C,E,G, !^!G,4 | F,>F, G,!<(!A, B,C!<)! |!f! D>!>(!B,!>)! A,3 C, | %13
!>(! G,>B,!>)! !fermata!A,4 |] %14
V:4
 C,2 | F,>F, F,2 F,2 | B,,>B, B,4 | A,3 A,, =B,,B,, | C,2 C,2 x C, | F,>F, F,2 F,2 | G,>G, G,4 | %7
 G,3 G, G,G, | C,2 C,2 x2 | x2 G,2 B,2 | x2 C,4 | F,>F, F,F, F,F, | F,>F, F,3 C, | C,>C, F,4 |] %14

